X: 231
T: Seneca Square Dance
B: canberra pickers and fiddlers
B: tunes
M:4/4
L:1/8
Q: 1/4=100
K:G
V:1 
G2A2|B2B4B2| d2B2 AG3|B4 B3d|BA3 G4|
B4B3B|d2B3AG2|ABAG E2F2|1G4:|2G6||
|:ef|g2{f}g4e2|d2B4ef|ggf2 g3a|b2e4g2-|
gaba g2e2|d4 BA G2|ABAG E2F2|G6:|
% abcbook-tune_id 63ae8f1caaf83e9a9e46dc21
% abcbook-tune_composer_id 
% abcbook-link-0 https://www.youtube.com/watch?v=lGbPI7jVlm8
% abcbook-boost 0
% abcbook-difficulty 0
% abcbook-tags canberra pickers and fiddlers,old time tunes,© free
% abcbook-tablature 
% abcbook-transpose 
% abcbook-tuning GDAD
% abcbook-lastupdated 1732835730285
% abcbook-src-url https://tunebook.net/scrape/tunes.abc
% abcbook-soundfonts 
% abcbook-repeats 1


